public/build/img/persona.svg

<svg fill="#000000" xmlns="http://www.w3.org/2000/svg"  viewBox="0 0 50 50" width="50px" height="50px"><path d="M 25.90625 3.28125 C 16.566406 3.492188 15.507813 10.316406 17.5 18.1875 C 17.1875 18.398438 16.550781 19.148438 16.65625 20.40625 C 16.96875 22.714844 17.914063 23.34375 18.4375 23.34375 C 18.648438 24.917969 19.390625 26.574219 20.125 27.625 C 20.648438 28.359375 20.84375 29.304688 20.84375 30.25 C 20.84375 31.089844 20.855469 30.554688 20.75 31.5 C 20.644531 31.804688 20.496094 32.082031 20.3125 32.34375 C 20.527344 33.152344 21.765625 37 26 37 C 30.335938 37 31.5 32.847656 31.625 32.34375 C 31.429688 32.085938 31.273438 31.804688 31.15625 31.5 C 31.050781 30.347656 31.03125 30.882813 31.03125 29.9375 C 31.03125 29.097656 31.359375 28.378906 31.78125 27.75 C 32.515625 26.699219 33.226563 24.917969 33.4375 23.34375 C 34.070313 23.34375 35.007813 22.714844 35.21875 20.40625 C 35.324219 19.148438 34.828125 18.398438 34.40625 18.1875 C 35.457031 15.25 37.433594 6.132813 30.71875 5.1875 C 29.984375 3.929688 28.214844 3.28125 25.90625 3.28125 Z M 33.28125 33.75 C 32.441406 35.984375 30.21875 39 26 39 C 21.777344 39 19.5625 36.039063 18.6875 33.78125 C 14.53125 36.339844 6.0625 37.125 6.0625 46 L 45.9375 46 C 45.9375 36.898438 37.507813 36.273438 33.28125 33.75 Z"/></svg>

<svg xmlns="http://www.w3.org/2000/svg" width="50" height="50"><path d="M25.906 3.281c-9.34.211-10.398 7.035-8.406 14.906-.313.211-.95.961-.844 2.22.313 2.308 1.258 2.937 1.782 2.937.21 1.574.953 3.23 1.687 4.281.523.734.719 1.68.719 2.625 0 .84.011.305-.094 1.25a3.395 3.395 0 01-.438.844C20.527 33.152 21.767 37 26 37c4.336 0 5.5-4.152 5.625-4.656a3.427 3.427 0 01-.469-.844c-.105-1.152-.125-.617-.125-1.563 0-.84.328-1.558.75-2.187.735-1.05 1.446-2.832 1.657-4.406.632 0 1.57-.63 1.78-2.938.106-1.258-.39-2.008-.812-2.218 1.051-2.938 3.028-12.055-3.687-13-.735-1.258-2.504-1.907-4.813-1.907zm7.375 30.469C32.441 35.984 30.22 39 26 39c-4.223 0-6.438-2.96-7.313-5.219C14.532 36.34 6.063 37.125 6.063 46h39.876c0-9.102-8.43-9.727-12.657-12.25z"/></svg>
